X: 1621
T: Coming From The Wedding
M:C|
L:1/8
R:Hornpipe
B:O'Neill's 1621
N:"Collected by Cronin."
Z:Transcribed by Michael D. Long, 10/10/98
K:A
(3(EFG)|A2 (ce) agfe|dcBA GBEc|B2 GB EBGB|AABc dcdB|\
A2 (ce) agfe|dcBA GBEB|Aceg agaf|edcB A2:|
|:(cd)|e2 (ce) Aece|f2 (df) Bfdf|e2 (ce) Aece|dcBA GABc|\
e2 (ce) Aece|dcde fgaf|eagf edcB|AdcB A2:|


